X:31
T:Katarinas Vals
R:Valse
C:Maria Jonsson
N:
O:Sverige
Z:<anamnese@laposte.net> -- http://anamnese.fr.st
P:AAB
M:3/4
L:1/8
Q:1/4=144
K:C
P:A
AB cB AG | A2 E3F | DE CB, A,B, | CD E2 E2 | B,3E EG |1
Bc A2 E2 :|2 Bc A4 :: A3 a ga | ef ed e2 | d3 f ed |
cd Bc A2 | z2 EG Bc | A3 c BA | GA ED E2-|E6 |
A3 a ga | ef ed e2 | d B2 cA2 | BG2 AF2 | EDE2 G2 | A6 :|
